X:1
T:Title
%%score ( 1 2 3 ) { 4 | 5 }
L:1/8
Q:1/4=108
M:4/4
K:D
V:1 treble nm="Grand Piano, Staff 1"
V:2 treble 
V:3 treble 
V:4 bass nm="Choir Pad, Magdalen College"
V:5 bass 
V:1
 [A,D]2 [DF]2 [EA]2 [Dd]2 | [DB]2 G2- G/ z/ G [DF]2 | z4 G2 z2 | [DB]2 [Ec]2 [Fd]2 [Ae]2 | z8 | %5
w: By~William~Hayes,~1774 * * *|||||
 B2 z2 z4 | [Ec]2 [Ec]2 [Ec]2 d2- | dd [Gd]2 [A=c]2 [GB]2 | [GB]2 [GB]2 [GB]2 [Ge]2- | %9
w: ||||
 [Ge][Fd] [Ec]2 [Fd]2 [Ec]2 | z2 G2 z4 | [CE]2 D6- | D2 z2 z4 |] %13
w: ||||
V:2
 x8 | z2 D2 C2 z2 | [CE]2 F2 z C [DA]2 | x8 | [EA]2 [Dd]2 [Ec]2 B2 | z D [CA]6 | z4 z2 D2 | %7
 F2 z2 z4 | x8 | x8 | [Dd]2 B,C [DF]2 [DE]2 | x8 | x8 |] %13
V:3
 x8 | x8 | z2 .D4 z2 | x8 | z4 z2 E2- | E z z2 z4 | x8 | x8 | x8 | x8 | x8 | x8 | x8 |] %13
V:4
 F,2 A,2 A,2 F,2 | B,2 B,2 A,2 A,2 | A,2 A,2 A,2 A,2 | G,2 G,2 D2 C2 | A,2 F,^G, A,2 A,2 | %5
 ^G,2 A,6 | A,2 A,2- A,/ z/ G, A,2 | A,2 G,2[K:treble] D2 D2 | D2 D2 E2[K:bass] A,2- | %9
 A,A, A,2 A,2 A,2 | A,2 G,2 A,2 A,2 | A,G, F,6- | F,2 z2 z4 |] %13
V:5
 D,2 D,2 C,2 B,,2 | G,2 E,2 A,,2 D,2 | A,,2 D,2 E,2 F,2 | z2 E,2 D,2 A,,2 | C,2 B,,2 C,D, E,2 | %5
 E,2 A,,6 | z4 z2 F,2 | D,2 E,2 D,2 G,2 | G,2 G,2 E,D, C,2- | C,D, z2 D,2 z2 | F,2 E,2 D,2 A,,2 | %11
 A,,2 D,6- | D,2 z2 z4 |] %13

